icons/command.svg

<svg xmlns="http://www.w3.org/2000/svg" width="24" height="24" viewBox="0 0 24 24">
  <path d="M18,2 C20.209139,2 22,3.790861 22,6 C22,8.14219539 20.3160315,9.89107888 18.1996403,9.99510469 L18,10 L16,10 L16,14 L18,14 C20.1421954,14 21.8910789,15.6839685 21.9951047,17.8003597 L22,18 C22,20.209139 20.209139,22 18,22 C15.8578046,22 14.1089211,20.3160315 14.0048953,18.1996403 L14,18 L14,16 L10,16 L10,18 C10,20.1421954 8.31603153,21.8910789 6.19964034,21.9951047 L6,22 C3.790861,22 2,20.209139 2,18 C2,15.8578046 3.68396847,14.1089211 5.80035966,14.0048953 L6,14 L8,14 L8,10 L6,10 C3.94667218,10 2.24223448,8.448735 2.02249288,6.4105535 L2.00550978,6.20515172 L2,6 C2,3.790861 3.790861,2 6,2 C8.14219539,2 9.89107888,3.68396847 9.99510469,5.80035966 L10,6 L10,8 L14,8 L14,6 C14,3.85780461 15.6839685,2.10892112 17.8003597,2.00489531 L18,2 Z M18,16 L16,16 L16,18 C16,19.1045695 16.8954305,20 18,20 C19.1045695,20 20,19.1045695 20,18 C20,16.9456382 19.1841222,16.0818349 18.1492623,16.0054857 L18,16 Z M8,16 L6,16 C4.8954305,16 4,16.8954305 4,18 C4,19.1045695 4.8954305,20 6,20 C7.0543618,20 7.91816512,19.1841222 7.99451426,18.1492623 L8,18 L8,16 Z M14,10 L10,10 L10,14 L14,14 L14,10 Z M6,4 C4.9456382,4 4.08183488,4.81587779 4.00512298,5.82562047 L3.99958292,5.97112107 L4.00341831,6.11842847 C4.06153041,7.12137581 4.85786364,7.92058811 5.84980894,7.99442931 L6,8 L8,8 L8,6 C8,4.99835629 7.26367029,4.16869161 6.30277435,4.0227694 L6.14926234,4.00548574 L6,4 Z M18,4 C16.9456382,4 16.0818349,4.81587779 16.0054857,5.85073766 L16,6 L16,8 L18,8 C19.0016437,8 19.8313084,7.26367029 19.9772306,6.30277435 L19.9945143,6.14926234 L20,6 C20,4.8954305 19.1045695,4 18,4 Z"/>
</svg>

<svg xmlns="http://www.w3.org/2000/svg" viewBox="0 0 24 24">
  <path d="M18 2a4 4 0 0 1 .2 8H16v4h2a4 4 0 0 1 4 3.8v.2a4 4 0 0 1-8 .2V16h-4v2a4 4 0 0 1-3.8 4H6a4 4 0 0 1-.2-8H8v-4H6a4 4 0 0 1-3.98-3.59l-.01-.2L2 6a4 4 0 0 1 8-.2V8h4V6a4 4 0 0 1 3.8-4h.2zm0 14h-2v2a2 2 0 1 0 2.15-2H18zM8 16H6a2 2 0 1 0 2 2.15V16zm6-6h-4v4h4v-4zM6 4a2 2 0 0 0-2 1.83v.29a2 2 0 0 0 1.85 1.87L6 8h2V6a2 2 0 0 0-1.7-1.98l-.15-.01L6 4zm12 0a2 2 0 0 0-2 1.85V8h2a2 2 0 0 0 1.98-1.7l.01-.15L20 6a2 2 0 0 0-2-2z"/>
</svg>
